admin/src/theme/img/ankkurointialue.svg

<svg width="24" height="24" viewBox="0 0 24 24" xmlns="http://www.w3.org/2000/svg">
  <g fill="none" fill-rule="evenodd">
    <path fill="#1E91D0" d="M0 0h24v24H0z"/>
    <path d="M12.2 20c-.88 0-1.75-.16-2.61-.48-.86-.32-1.63-.74-2.31-1.26-.68-.52-1.23-1.1066667-1.65-1.76-.42-.6533333-.63-1.32-.63-2v-2l2.7 2.02-1.16 1.16c.41333333.7733333 1.12 1.4633333 2.12 2.07 1 .6066667 1.98.9433333 2.94 1.01V11H9V9.8h2.6V8.32c-.5066667-.18666667-.9-.46666667-1.18-.84-.28-.37333333-.42-.8-.42-1.28 0-.61333333.2166667-1.13333333.65-1.56.4333333-.42666667.95-.64 1.55-.64.6133333 0 1.1333333.21333333 1.56.64.4266667.42666667.64.94666667.64 1.56 0 .48-.14.90666667-.42 1.28-.28.37333333-.6733333.65333333-1.18.84V9.8h2.6V11h-2.6v7.76c.96-.0666667 1.94-.4033333 2.94-1.01s1.7066667-1.2966667 2.12-2.07l-1.16-1.16 2.7-2.02v2c0 .68-.21 1.3466667-.63 2-.42.6533333-.97 1.24-1.65 1.76-.68.52-1.45.94-2.31 1.26-.86.32-1.73.48-2.61.48Zm0-12.8c.28 0 .5166667-.1.71-.3.1933333-.2.29-.43333333.29-.7 0-.28-.0966667-.51666667-.29-.71-.1933333-.19333333-.43-.29-.71-.29-.2666667 0-.5.09666667-.7.29-.2.19333333-.3.43-.3.71 0 .26666667.1.5.3.7.2.2.4333333.3.7.3Z" stroke="#FFF" stroke-width=".25" fill="#FFF" fill-rule="nonzero"/>
  </g>
</svg>

<?xml version="1.0" encoding="UTF-8"?>
<svg width="24px" height="24px" viewBox="0 0 24 24" version="1.1" xmlns="http://www.w3.org/2000/svg" xmlns:xlink="http://www.w3.org/1999/xlink">
    <title>7AE3BBB0-1A6E-46AB-8957-7AF6C218EC7F</title>
    <g id="Squat-laskuri" stroke="none" stroke-width="1" fill="none" fill-rule="evenodd">
        <g id="colors_and_typography" transform="translate(-774.000000, -2066.000000)">
            <g id="ankkurointialue" transform="translate(722.000000, 2046.000000)">
                <g transform="translate(52.000000, 20.000000)">
                    <rect id="Rectangle" fill="#1E91D0" x="0" y="0" width="24" height="24"></rect>
                    <path d="M12.2,20 C11.32,20 10.45,19.84 9.59,19.52 C8.73,19.2 7.96,18.78 7.28,18.26 C6.6,17.74 6.05,17.1533333 5.63,16.5 C5.21,15.8466667 5,15.18 5,14.5 L5,12.5 L7.7,14.52 L6.54,15.68 C6.95333333,16.4533333 7.66,17.1433333 8.66,17.75 C9.66,18.3566667 10.64,18.6933333 11.6,18.76 L11.6,11 L9,11 L9,9.8 L11.6,9.8 L11.6,8.32 C11.0933333,8.13333333 10.7,7.85333333 10.42,7.48 C10.14,7.10666667 10,6.68 10,6.2 C10,5.58666667 10.2166667,5.06666667 10.65,4.64 C11.0833333,4.21333333 11.6,4 12.2,4 C12.8133333,4 13.3333333,4.21333333 13.76,4.64 C14.1866667,5.06666667 14.4,5.58666667 14.4,6.2 C14.4,6.68 14.26,7.10666667 13.98,7.48 C13.7,7.85333333 13.3066667,8.13333333 12.8,8.32 L12.8,9.8 L15.4,9.8 L15.4,11 L12.8,11 L12.8,18.76 C13.76,18.6933333 14.74,18.3566667 15.74,17.75 C16.74,17.1433333 17.4466667,16.4533333 17.86,15.68 L16.7,14.52 L19.4,12.5 L19.4,14.5 C19.4,15.18 19.19,15.8466667 18.77,16.5 C18.35,17.1533333 17.8,17.74 17.12,18.26 C16.44,18.78 15.67,19.2 14.81,19.52 C13.95,19.84 13.08,20 12.2,20 Z M12.2,7.2 C12.48,7.2 12.7166667,7.1 12.91,6.9 C13.1033333,6.7 13.2,6.46666667 13.2,6.2 C13.2,5.92 13.1033333,5.68333333 12.91,5.49 C12.7166667,5.29666667 12.48,5.2 12.2,5.2 C11.9333333,5.2 11.7,5.29666667 11.5,5.49 C11.3,5.68333333 11.2,5.92 11.2,6.2 C11.2,6.46666667 11.3,6.7 11.5,6.9 C11.7,7.1 11.9333333,7.2 12.2,7.2 Z" id="Shape" stroke="#FFFFFF" stroke-width="0.25" fill="#FFFFFF" fill-rule="nonzero"></path>
                </g>
            </g>
        </g>
    </g>
</svg>
